!!!COM: Claude Debussy
!!!CNT: Francais
!!!TXO: Francais
!!!OTL: Les Cloches
!!!LYR: Paul Bourget
!!!ENC: Jacob Pegg
!!!YOR: Claude Debussy: Songs 1880-1904, Edited by Rita Benton
!!!YOR: New York: Dover publications, inc., 1981
!!!YOR: ISBN 0-486-24131-9
!!!ODT: 1885/
!!NB: Vocal melody and text only encoded.
!!NB: First instance of melodic material only encoded.
**kern	**silbe
*clef G2	*
*k[f#c#g#d#]	*
*M4/4	*
*MM[andantino]	*
!! andantino quasi allegretto
!! created: 7/1/03 22:43
!! last edited: 7/10/03 15:02
!! time (min) : input notes 6, words 3.  check : notes 4, words 3.
!! total edit time: about 16 min.
=1	=1
2r	.
2r	.
=2	=2
1r	.
=3	=3
4r	.
{4a	{Les
4g#	feuil-
8e	-les
8g#	s'ou-
=4	=4
4a	-vraient
4a	sur
6g#	le
6b	bord
6g#	des
=5	=5
[4cc#	bran-
8cc#]}	-ches,}
8r	.
{8b	{De/-
8a	-li-
8g#	-ca-
8e	-te-
=6	=6
1a}	-ment.}
=7	=7
4r	.
{4cc#	{Les
4dd#	clo-
(8cc#	-ches
8a)	tin-
=8	=8
4cc#	-taient,
4cc#	le/-
(6a	-ge\-
6b)	-res
6cc#	et
=9	=9
[4ee	fran-
8ee]}	-ches,}
8r	.
{8dd#	{Dans
8cc#	le
8a#	ciel
8f#	cle/-
=10	=10
2.f#}	-ment.}
4r	.
=11	=11
2r	.
{2d#	{Ryth-
=12	=12
2f#	-mique
4g#	et
4g#	fer-
=13	=13
4a	-vent
4a	comme
6b	une
6b	an-
6b	-ti-
=14	=14
(2cc#	-en-
4g#)}	-ne,}
{4g#	{Ce
=15	=15
6a	loin-
6e	-tain
6e	ap-
2f#}	-pel}
=16	=16
{4a	{Me
4a	re-
4b	-me/-
4b	-mo-
=17	=17
4cc#	-rait
4cc#	la
6dd#	blan-
6ff#	-cheur
6ee	chre/-
=18	=18
2cc#	-tien-
2a}	-ne}
=19	=19
{4g#	{Des
4e	fleurs
4f#	de
4g#	l'au-
=20	=20
1g#}	-tel.}
!! 21 - 23 piano only
=24	=24
2r	.
4r	.
{4a	{Ces
=25	=25
[2a#	clo-
4a#]	-ches
4a#	par-
=26	=26
4cc#	-laient
4cc#	d'heu-
6cc#	-reu-
6cc#	-ses
6ee	an-
=27	=27
2dd#	-ne/-
[2cc#	|
=28	=28
2cc#]	|
2an}	-es,}
=29	=29
{4g#	{Et,
4e	dans
4f#	le
4g#	grand
=30	=30
2b}	bois}
{2b	{Sem-
=31	=31
2gg#	-blaient
4ff#	re-
4ee	-ver-
=32	=32
4ee	-dir
4b	les
6g#	feuil-
6e	-les
6f#	fa-
=33	=33
1gn	-ne/-
=34	=34
4gn}	-es}
4r	.
{2gn	{Des
=35	=35
2gn	jours
4gn	d'au-
4gn	-tre-
=36	=36
1g#}	-fois.}
*-	*-
